;FLAVOR:RepRap
;TIME:1746
;Filament used: 0.160722m
;Layer height: 0.06
;Generated with Cura_SteamEngine 2.4.0
M190 S60
M104 S205
M109 S205
G28 ;Home
G1 Z15.0 F6000 ;Move the platform down 15mm
;Prime the extruder
G92 E0
G1 F200 E3
G92 E0
;LAYER_COUNT:122
;LAYER:0
M107
G1 F1500 E-6.5
G0 F3600 X87.103 Y102.79 Z0.3
;TYPE:SKIRT
G1 F1500 E0
G1 F1800 X87.751 Y102.339 E0.01485
G1 X88.442 Y101.955 E0.02972
G1 X89.167 Y101.643 E0.04457
G1 X89.92 Y101.406 E0.05942
G1 X90.694 Y101.247 E0.07428
G1 X91.479 Y101.166 E0.08913
G1 X91.881 Y101.156 E0.09669
G1 X95.063 Y101.156 E0.15654
G1 X95.066 Y101.138 E0.15689
G1 X95.264 Y100.373 E0.17175
G1 X95.538 Y99.633 E0.1866
G1 X95.886 Y98.924 E0.20145
G1 X96.304 Y98.253 E0.21632
G1 X96.787 Y97.629 E0.23117
G1 X97.33 Y97.056 E0.24602
G1 X97.929 Y96.541 E0.26088
G1 X98.577 Y96.09 E0.27573
G1 X99.268 Y95.706 E0.2906
G1 X99.993 Y95.394 E0.30544
G1 X100.746 Y95.157 E0.32029
G1 X101.52 Y94.998 E0.33516
G1 X102.305 Y94.917 E0.35
G1 X102.707 Y94.907 E0.35756
G1 X105.887 Y94.907 E0.41738
G1 X105.89 Y94.888 E0.41774
G1 X106.088 Y94.123 E0.43261
G1 X106.362 Y93.383 E0.44745
G1 X106.71 Y92.674 E0.46231
G1 X107.128 Y92.003 E0.47718
G1 X107.611 Y91.379 E0.49202
G1 X108.154 Y90.806 E0.50687
G1 X108.753 Y90.291 E0.52173
G1 X109.401 Y89.84 E0.53658
G1 X110.092 Y89.456 E0.55145
G1 X110.817 Y89.144 E0.5663
G1 X111.57 Y88.907 E0.58115
G1 X112.344 Y88.748 E0.59601
G1 X113.129 Y88.667 E0.61086
G1 X113.531 Y88.657 E0.61842
G1 X122.119 Y88.657 E0.77997
G1 X122.908 Y88.697 E0.79483
G1 X123.688 Y88.816 E0.80967
G1 X124.453 Y89.014 E0.82453
G1 X125.193 Y89.288 E0.83938
G1 X125.902 Y89.636 E0.85423
G1 X126.573 Y90.054 E0.8691
G1 X127.197 Y90.537 E0.88395
G1 X127.77 Y91.08 E0.8988
G1 X128.285 Y91.679 E0.91366
G1 X128.736 Y92.327 E0.92851
G1 X129.12 Y93.018 E0.94338
G1 X129.432 Y93.743 E0.95822
G1 X129.669 Y94.496 E0.97307
G1 X129.828 Y95.27 E0.98794
G1 X129.909 Y96.055 E1.00278
G1 X129.919 Y96.457 E1.01034
G1 X129.919 Y105.044 E1.17187
G1 X129.879 Y105.833 E1.18673
G1 X129.76 Y106.613 E1.20157
G1 X129.562 Y107.378 E1.21644
G1 X129.288 Y108.118 E1.23128
G1 X128.94 Y108.827 E1.24614
G1 X128.522 Y109.498 E1.26101
G1 X128.039 Y110.122 E1.27585
G1 X127.496 Y110.695 E1.2907
G1 X126.897 Y111.21 E1.30556
G1 X126.249 Y111.661 E1.32041
G1 X125.558 Y112.045 E1.33528
G1 X124.833 Y112.357 E1.35013
G1 X124.08 Y112.594 E1.36498
G1 X123.306 Y112.753 E1.37984
G1 X122.521 Y112.834 E1.39469
G1 X122.119 Y112.844 E1.40225
G1 X118.937 Y112.844 E1.46211
G1 X118.934 Y112.862 E1.46245
G1 X118.736 Y113.627 E1.47731
G1 X118.462 Y114.367 E1.49216
G1 X118.114 Y115.076 E1.50701
G1 X117.696 Y115.747 E1.52188
G1 X117.213 Y116.371 E1.53673
G1 X116.67 Y116.944 E1.55158
G1 X116.071 Y117.459 E1.56644
G1 X115.423 Y117.91 E1.58129
G1 X114.732 Y118.294 E1.59616
G1 X114.007 Y118.606 E1.611
G1 X113.254 Y118.843 E1.62585
G1 X112.48 Y119.002 E1.64072
G1 X111.695 Y119.083 E1.65556
G1 X111.293 Y119.093 E1.66313
G1 X108.113 Y119.093 E1.72294
G1 X108.11 Y119.112 E1.7233
G1 X107.912 Y119.877 E1.73817
G1 X107.638 Y120.617 E1.75301
G1 X107.29 Y121.326 E1.76787
G1 X106.872 Y121.997 E1.78274
G1 X106.389 Y122.621 E1.79758
G1 X105.846 Y123.194 E1.81243
G1 X105.247 Y123.709 E1.82729
G1 X104.599 Y124.16 E1.84214
G1 X103.908 Y124.544 E1.85701
G1 X103.183 Y124.856 E1.87186
G1 X102.43 Y125.093 E1.88671
G1 X101.656 Y125.252 E1.90157
G1 X100.871 Y125.333 E1.91642
G1 X100.469 Y125.343 E1.92398
G1 X91.881 Y125.343 E2.08553
G1 X91.092 Y125.303 E2.10039
G1 X90.312 Y125.184 E2.11523
G1 X89.547 Y124.986 E2.13009
G1 X88.807 Y124.712 E2.14494
G1 X88.098 Y124.364 E2.15979
G1 X87.427 Y123.946 E2.17466
G1 X86.803 Y123.463 E2.18951
G1 X86.23 Y122.92 E2.20436
G1 X85.715 Y122.321 E2.21922
G1 X85.264 Y121.673 E2.23407
G1 X84.88 Y120.982 E2.24894
G1 X84.568 Y120.257 E2.26378
G1 X84.331 Y119.504 E2.27863
G1 X84.172 Y118.73 E2.2935
G1 X84.091 Y117.945 E2.30834
G1 X84.081 Y117.543 E2.31591
G1 X84.081 Y108.956 E2.47743
G1 X84.121 Y108.167 E2.49229
G1 X84.24 Y107.387 E2.50713
G1 X84.438 Y106.622 E2.522
G1 X84.712 Y105.882 E2.53684
G1 X85.06 Y105.173 E2.5517
G1 X85.478 Y104.502 E2.56657
G1 X85.961 Y103.878 E2.58141
G1 X86.504 Y103.305 E2.59626
G1 X87.103 Y102.79 E2.61112
G0 F3600 X87.492 Y102.998
G1 F1800 X88.134 Y102.575 E2.62558
G1 X88.817 Y102.22 E2.64006
G1 X89.532 Y101.939 E2.65451
G1 X90.274 Y101.733 E2.669
G1 X91.032 Y101.605 E2.68346
G1 X91.881 Y101.556 E2.69946
G1 X95.407 Y101.556 E2.76578
G1 X95.466 Y101.179 E2.77296
G1 X95.664 Y100.436 E2.78742
G1 X95.938 Y99.717 E2.8019
G1 X96.285 Y99.031 E2.81636
G1 X96.701 Y98.384 E2.83083
G1 X97.182 Y97.784 E2.84529
G1 X97.723 Y97.237 E2.85976
G1 X98.318 Y96.749 E2.87424
G1 X98.96 Y96.326 E2.8887
G1 X99.643 Y95.971 E2.90318
G1 X100.358 Y95.69 E2.91763
G1 X101.1 Y95.484 E2.93212
G1 X101.858 Y95.356 E2.94658
G1 X102.707 Y95.307 E2.96257
G1 X106.231 Y95.307 E3.02886
G1 X106.29 Y94.929 E3.03606
G1 X106.488 Y94.186 E3.05052
G1 X106.762 Y93.467 E3.065
G1 X107.109 Y92.781 E3.07946
G1 X107.525 Y92.134 E3.09393
G1 X108.006 Y91.534 E3.10839
G1 X108.547 Y90.987 E3.12286
G1 X109.142 Y90.499 E3.13734
G1 X109.784 Y90.076 E3.1518
G1 X110.467 Y89.721 E3.16628
G1 X111.182 Y89.44 E3.18073
G1 X111.924 Y89.234 E3.19522
G1 X112.682 Y89.106 E3.20968
G1 X113.531 Y89.057 E3.22567
G1 X122.119 Y89.057 E3.38722
G1 X122.887 Y89.097 E3.40169
G1 X123.647 Y89.216 E3.41616
G1 X124.39 Y89.414 E3.43062
G1 X125.109 Y89.688 E3.44509
G1 X125.795 Y90.035 E3.45955
G1 X126.442 Y90.451 E3.47402
G1 X127.042 Y90.932 E3.48849
G1 X127.589 Y91.473 E3.50296
G1 X128.077 Y92.068 E3.51744
G1 X128.5 Y92.71 E3.5319
G1 X128.855 Y93.393 E3.54638
G1 X129.136 Y94.108 E3.56083
G1 X129.342 Y94.85 E3.57531
G1 X129.47 Y95.608 E3.58977
G1 X129.519 Y96.457 E3.60577
G1 X129.519 Y105.044 E3.7673
G1 X129.479 Y105.812 E3.78176
G1 X129.36 Y106.572 E3.79623
G1 X129.162 Y107.315 E3.8107
G1 X128.888 Y108.034 E3.82517
G1 X128.541 Y108.72 E3.83963
G1 X128.125 Y109.367 E3.8541
G1 X127.644 Y109.967 E3.86857
G1 X127.103 Y110.514 E3.88304
G1 X126.508 Y111.002 E3.89751
G1 X125.866 Y111.425 E3.91197
G1 X125.183 Y111.78 E3.92645
G1 X124.468 Y112.061 E3.94091
G1 X123.726 Y112.267 E3.95539
G1 X122.968 Y112.395 E3.96985
G1 X122.119 Y112.444 E3.98585
G1 X118.593 Y112.444 E4.05217
G1 X118.534 Y112.821 E4.05935
G1 X118.336 Y113.564 E4.07382
G1 X118.062 Y114.283 E4.08829
G1 X117.715 Y114.969 E4.10275
G1 X117.299 Y115.616 E4.11722
G1 X116.818 Y116.216 E4.13168
G1 X116.277 Y116.763 E4.14616
G1 X115.682 Y117.251 E4.16063
G1 X115.04 Y117.674 E4.17509
G1 X114.357 Y118.029 E4.18957
G1 X113.642 Y118.31 E4.20402
G1 X112.9 Y118.516 E4.21851
G1 X112.142 Y118.644 E4.23297
G1 X111.293 Y118.693 E4.24897
G1 X107.769 Y118.693 E4.31525
G1 X107.71 Y119.071 E4.32245
G1 X107.512 Y119.814 E4.33691
G1 X107.238 Y120.533 E4.35139
G1 X106.891 Y121.219 E4.36585
G1 X106.475 Y121.866 E4.38032
G1 X105.994 Y122.466 E4.39478
G1 X105.453 Y123.013 E4.40926
G1 X104.858 Y123.501 E4.42373
G1 X104.216 Y123.924 E4.43819
G1 X103.533 Y124.279 E4.45267
G1 X102.818 Y124.56 E4.46712
G1 X102.076 Y124.766 E4.48161
G1 X101.318 Y124.894 E4.49607
G1 X100.469 Y124.943 E4.51207
G1 X91.881 Y124.943 E4.67361
G1 X91.113 Y124.903 E4.68808
G1 X90.353 Y124.784 E4.70255
G1 X89.61 Y124.586 E4.71701
G1 X88.891 Y124.312 E4.73148
G1 X88.205 Y123.965 E4.74595
G1 X87.558 Y123.549 E4.76041
G1 X86.958 Y123.068 E4.77488
G1 X86.411 Y122.527 E4.78935
G1 X85.923 Y121.932 E4.80383
G1 X85.5 Y121.29 E4.81829
G1 X85.145 Y120.607 E4.83277
G1 X84.864 Y119.892 E4.84722
G1 X84.658 Y119.15 E4.8617
G1 X84.53 Y118.392 E4.87616
G1 X84.481 Y117.543 E4.89216
G1 X84.481 Y108.956 E5.05369
G1 X84.521 Y108.188 E5.06815
G1 X84.64 Y107.428 E5.08262
G1 X84.838 Y106.685 E5.09709
G1 X85.112 Y105.966 E5.11156
G1 X85.459 Y105.28 E5.12602
G1 X85.875 Y104.633 E5.14049
G1 X86.356 Y104.033 E5.15496
G1 X86.897 Y103.486 E5.16943
G1 X87.492 Y102.998 E5.1839
G0 F3600 X87.879 Y103.213
G1 F1800 X88.515 Y102.818 E5.19799
G1 X89.189 Y102.494 E5.21205
G1 X89.894 Y102.244 E5.22612
G1 X90.622 Y102.07 E5.2402
G1 X91.364 Y101.975 E5.25428
G1 X91.881 Y101.956 E5.26401
G1 X95.748 Y101.956 E5.33675
G1 X95.866 Y101.222 E5.35073
G1 X96.064 Y100.5 E5.36481
G1 X96.337 Y99.804 E5.37888
G1 X96.684 Y99.141 E5.39295
G1 X97.099 Y98.518 E5.40704
G1 X97.578 Y97.944 E5.4211
G1 X98.115 Y97.423 E5.43517
G1 X98.705 Y96.964 E5.44923
G1 X99.341 Y96.569 E5.46332
G1 X100.015 Y96.245 E5.47738
G1 X100.72 Y95.995 E5.49145
G1 X101.448 Y95.821 E5.50553
G1 X102.19 Y95.726 E5.51961
G1 X102.707 Y95.707 E5.52934
G1 X106.571 Y95.707 E5.60202
G1 X106.69 Y94.972 E5.61603
G1 X106.888 Y94.25 E5.63011
G1 X107.161 Y93.554 E5.64417
G1 X107.508 Y92.891 E5.65825
G1 X107.923 Y92.268 E5.67233
G1 X108.402 Y91.694 E5.68639
G1 X108.939 Y91.173 E5.70047
G1 X109.529 Y90.714 E5.71453
G1 X110.165 Y90.319 E5.72861
G1 X110.839 Y89.995 E5.74268
G1 X111.544 Y89.745 E5.75675
G1 X112.272 Y89.571 E5.77083
G1 X113.014 Y89.476 E5.7849
G1 X113.531 Y89.457 E5.79463
G1 X122.119 Y89.457 E5.95618
G1 X122.866 Y89.497 E5.97025
G1 X123.604 Y89.616 E5.98431
G1 X124.326 Y89.814 E5.99839
G1 X125.022 Y90.087 E6.01246
G1 X125.685 Y90.434 E6.02653
G1 X126.308 Y90.849 E6.04061
G1 X126.882 Y91.328 E6.05468
G1 X127.403 Y91.865 E6.06875
G1 X127.862 Y92.455 E6.08281
G1 X128.257 Y93.091 E6.09689
G1 X128.581 Y93.765 E6.11096
G1 X128.831 Y94.47 E6.12503
G1 X129.005 Y95.198 E6.13911
G1 X129.1 Y95.94 E6.15318
G1 X129.119 Y96.457 E6.16291
G1 X129.119 Y105.044 E6.32444
G1 X129.079 Y105.791 E6.33851
G1 X128.96 Y106.529 E6.35257
G1 X128.762 Y107.251 E6.36666
G1 X128.489 Y107.947 E6.38072
G1 X128.142 Y108.61 E6.3948
G1 X127.727 Y109.233 E6.40888
G1 X127.248 Y109.807 E6.42294
G1 X126.711 Y110.328 E6.43701
G1 X126.121 Y110.787 E6.45108
G1 X125.485 Y111.182 E6.46516
G1 X124.811 Y111.506 E6.47923
G1 X124.106 Y111.756 E6.4933
G1 X123.378 Y111.93 E6.50738
G1 X122.636 Y112.025 E6.52145
G1 X122.119 Y112.044 E6.53118
G1 X118.252 Y112.044 E6.60392
G1 X118.134 Y112.778 E6.6179
G1 X117.936 Y113.5 E6.63199
G1 X117.663 Y114.196 E6.64605
G1 X117.316 Y114.859 E6.66013
G1 X116.901 Y115.482 E6.67421
G1 X116.422 Y116.056 E6.68827
G1 X115.885 Y116.577 E6.70234
G1 X115.295 Y117.036 E6.71641
G1 X114.659 Y117.431 E6.73049
G1 X113.985 Y117.755 E6.74456
G1 X113.28 Y118.005 E6.75863
G1 X112.552 Y118.179 E6.77271
G1 X111.81 Y118.274 E6.78678
G1 X111.293 Y118.293 E6.79651
G1 X107.429 Y118.293 E6.86919
G1 X107.31 Y119.028 E6.8832
G1 X107.112 Y119.75 E6.89728
G1 X106.839 Y120.446 E6.91134
G1 X106.492 Y121.109 E6.92542
G1 X106.077 Y121.732 E6.9395
G1 X105.598 Y122.306 E6.95356
G1 X105.061 Y122.827 E6.96764
G1 X104.471 Y123.286 E6.9817
G1 X103.835 Y123.681 E6.99578
G1 X103.161 Y124.005 E7.00985
G1 X102.456 Y124.255 E7.02392
G1 X101.728 Y124.429 E7.038
G1 X100.986 Y124.524 E7.05207
G1 X100.469 Y124.543 E7.0618
G1 X91.881 Y124.543 E7.22335
G1 X91.134 Y124.503 E7.23742
G1 X90.396 Y124.384 E7.25148
G1 X89.674 Y124.186 E7.26556
G1 X88.978 Y123.913 E7.27963
G1 X88.315 Y123.566 E7.2937
G1 X87.692 Y123.151 E7.30779
G1 X87.118 Y122.672 E7.32185
G1 X86.597 Y122.135 E7.33592
G1 X86.138 Y121.545 E7.34998
G1 X85.743 Y120.909 E7.36407
G1 X85.419 Y120.235 E7.37813
G1 X85.169 Y119.53 E7.3922
G1 X84.995 Y118.802 E7.40628
G1 X84.9 Y118.06 E7.42036
G1 X84.881 Y117.543 E7.43009
G1 X84.881 Y108.956 E7.59161
G1 X84.921 Y108.209 E7.60568
G1 X85.04 Y107.471 E7.61975
G1 X85.238 Y106.749 E7.63383
G1 X85.511 Y106.053 E7.64789
G1 X85.858 Y105.39 E7.66197
G1 X86.273 Y104.767 E7.67605
G1 X86.752 Y104.193 E7.69011
G1 X87.289 Y103.672 E7.70419
G1 X87.879 Y103.213 E7.71825
G0 F3600 X88.265 Y103.435
G1 F1800 X88.894 Y103.071 E7.73192
G1 X89.559 Y102.778 E7.74559
G1 X90.252 Y102.56 E7.75925
G1 X90.964 Y102.42 E7.7729
G1 X91.881 Y102.356 E7.79019
G1 X96.126 Y102.356 E7.87004
G1 X96.147 Y101.982 E7.87709
G1 X96.266 Y101.265 E7.89076
G1 X96.464 Y100.566 E7.90443
G1 X96.737 Y99.893 E7.91809
G1 X97.082 Y99.254 E7.93175
G1 X97.496 Y98.657 E7.94542
G1 X97.972 Y98.109 E7.95907
G1 X98.506 Y97.616 E7.97274
G1 X99.091 Y97.186 E7.9864
G1 X99.72 Y96.822 E8.00007
G1 X100.385 Y96.529 E8.01374
G1 X101.078 Y96.311 E8.0274
G1 X101.79 Y96.171 E8.04105
G1 X102.707 Y96.107 E8.05834
G1 X106.95 Y96.107 E8.13816
G1 X106.971 Y95.732 E8.14522
G1 X107.09 Y95.015 E8.15889
G1 X107.288 Y94.316 E8.17256
G1 X107.561 Y93.643 E8.18622
G1 X107.906 Y93.004 E8.19988
G1 X108.32 Y92.407 E8.21355
G1 X108.796 Y91.859 E8.2272
G1 X109.33 Y91.366 E8.24087
G1 X109.915 Y90.936 E8.25453
G1 X110.544 Y90.572 E8.2682
G1 X111.209 Y90.279 E8.28187
G1 X111.902 Y90.061 E8.29553
G1 X112.614 Y89.921 E8.30918
G1 X113.531 Y89.857 E8.32647
G1 X122.119 Y89.857 E8.48802
G1 X122.844 Y89.897 E8.50168
G1 X123.561 Y90.016 E8.51535
G1 X124.26 Y90.214 E8.52902
G1 X124.933 Y90.487 E8.54268
G1 X125.572 Y90.832 E8.55634
G1 X126.169 Y91.246 E8.57
G1 X126.717 Y91.722 E8.58366
G1 X127.21 Y92.256 E8.59733
G1 X127.64 Y92.841 E8.61098
G1 X128.004 Y93.47 E8.62466
G1 X128.297 Y94.135 E8.63832
G1 X128.515 Y94.828 E8.65199
G1 X128.655 Y95.54 E8.66564
G1 X128.719 Y96.457 E8.68293
G1 X128.719 Y105.044 E8.84446
G1 X128.679 Y105.769 E8.85812
G1 X128.56 Y106.486 E8.87179
G1 X128.362 Y107.185 E8.88545
G1 X128.089 Y107.858 E8.89911
G1 X127.744 Y108.497 E8.91277
G1 X127.33 Y109.094 E8.92644
G1 X126.854 Y109.642 E8.94009
G1 X126.32 Y110.135 E8.95377
G1 X125.735 Y110.565 E8.96742
G1 X125.106 Y110.929 E8.98109
G1 X124.441 Y111.222 E8.99476
G1 X123.748 Y111.44 E9.00843
G1 X123.036 Y111.58 E9.02208
G1 X122.119 Y111.644 E9.03937
G1 X117.874 Y111.644 E9.11922
G1 X117.853 Y112.018 E9.12627
G1 X117.734 Y112.735 E9.13994
G1 X117.536 Y113.434 E9.1536
G1 X117.263 Y114.107 E9.16726
G1 X116.918 Y114.746 E9.18092
G1 X116.504 Y115.343 E9.19459
G1 X116.028 Y115.891 E9.20824
G1 X115.494 Y116.384 E9.22192
G1 X114.909 Y116.814 E9.23557
G1 X114.28 Y117.178 E9.24924
G1 X113.615 Y117.471 E9.26291
G1 X112.922 Y117.689 E9.27658
G1 X112.21 Y117.829 E9.29023
G1 X111.293 Y117.893 E9.30752
G1 X107.05 Y117.893 E9.38733
G1 X107.029 Y118.268 E9.3944
G1 X106.91 Y118.985 E9.40807
G1 X106.712 Y119.684 E9.42173
G1 X106.439 Y120.357 E9.4354
G1 X106.094 Y120.996 E9.44906
G1 X105.68 Y121.593 E9.46272
G1 X105.204 Y122.141 E9.47638
G1 X104.67 Y122.634 E9.49005
G1 X104.085 Y123.064 E9.5037
G1 X103.456 Y123.428 E9.51737
G1 X102.791 Y123.721 E9.53104
G1 X102.098 Y123.939 E9.54471
G1 X101.386 Y124.079 E9.55836
G1 X100.469 Y124.143 E9.57565
G1 X91.881 Y124.143 E9.73719
G1 X91.156 Y124.103 E9.75085
G1 X90.439 Y123.984 E9.76452
G1 X89.74 Y123.786 E9.77819
G1 X89.067 Y123.513 E9.79185
G1 X88.428 Y123.168 E9.80551
G1 X87.831 Y122.754 E9.81918
G1 X87.283 Y122.278 E9.83283
G1 X86.79 Y121.744 E9.8465
G1 X86.36 Y121.159 E9.86016
G1 X85.996 Y120.53 E9.87383
G1 X85.703 Y119.865 E9.8875
G1 X85.485 Y119.172 E9.90116
G1 X85.345 Y118.46 E9.91481
G1 X85.281 Y117.543 E9.93211
G1 X85.281 Y108.956 E10.09363
G1 X85.321 Y108.231 E10.10729
G1 X85.44 Y107.514 E10.12096
G1 X85.638 Y106.815 E10.13463
G1 X85.911 Y106.142 E10.14829
G1 X86.256 Y105.503 E10.16195
G1 X86.67 Y104.906 E10.17561
G1 X87.146 Y104.358 E10.18927
G1 X87.68 Y103.865 E10.20294
G1 X88.265 Y103.435 E10.2166
G0 F3600 X88.649 Y103.665
G1 F1800 X89.27 Y103.333 E10.22984
G1 X89.924 Y103.073 E10.24308
G1 X90.604 Y102.889 E10.25633
G1 X91.3 Y102.783 E10.26958
G1 X91.881 Y102.756 E10.28052
G1 X96.507 Y102.756 E10.36753
G1 X96.507 Y102.707 E10.36846
G1 X96.547 Y102.004 E10.3817
G1 X96.666 Y101.31 E10.39495
G1 X96.864 Y100.635 E10.40818
G1 X97.136 Y99.986 E10.42142
G1 X97.481 Y99.372 E10.43466
G1 X97.892 Y98.801 E10.4479
G1 X98.366 Y98.28 E10.46115
G1 X98.896 Y97.816 E10.4744
G1 X99.475 Y97.416 E10.48763
G1 X100.096 Y97.084 E10.50088
G1 X100.75 Y96.824 E10.51412
G1 X101.43 Y96.64 E10.52737
G1 X102.126 Y96.534 E10.54061
G1 X102.707 Y96.507 E10.55155
G1 X107.331 Y96.507 E10.63853
G1 X107.331 Y96.457 E10.63947
G1 X107.371 Y95.754 E10.65272
G1 X107.49 Y95.06 E10.66596
G1 X107.688 Y94.385 E10.6792
G1 X107.96 Y93.736 E10.69243
G1 X108.305 Y93.122 E10.70568
G1 X108.716 Y92.551 E10.71892
G1 X109.19 Y92.03 E10.73217
G1 X109.72 Y91.566 E10.74542
G1 X110.299 Y91.166 E10.75865
G1 X110.92 Y90.834 E10.7719
G1 X111.574 Y90.574 E10.78514
G1 X112.254 Y90.39 E10.79839
