;FLAVOR:RepRap
;TIME:4634
;Filament used: 1.02159m
;Layer height: 0.1
;Generated with Cura_SteamEngine 2.4.0
M190 S60
M104 S205
M109 S205
G28 ;Home
G1 Z15.0 F6000 ;Move the platform down 15mm
;Prime the extruder
G92 E0
G1 F200 E3
G92 E0
;LAYER_COUNT:17
;LAYER:0
M107
G1 F1500 E-6.5
G0 F3600 X74.592 Y70.84 Z0.3
;TYPE:SKIRT
G1 F1500 E0
G1 F1800 X75.161 Y70.293 E0.01485
G1 X75.783 Y69.807 E0.0297
G1 X76.451 Y69.385 E0.04456
G1 X77.158 Y69.033 E0.05941
G1 X77.897 Y68.755 E0.07427
G1 X78.66 Y68.553 E0.08911
G1 X79.44 Y68.429 E0.10397
G1 X80.274 Y68.384 E0.11968
G1 X133.726 Y68.384 E1.12514
G1 X134.515 Y68.424 E1.14
G1 X135.295 Y68.543 E1.15484
G1 X136.06 Y68.741 E1.16971
G1 X136.8 Y69.015 E1.18455
G1 X137.509 Y69.363 E1.19941
G1 X138.18 Y69.781 E1.21428
G1 X138.804 Y70.264 E1.22912
G1 X139.377 Y70.807 E1.24397
G1 X139.892 Y71.406 E1.25883
G1 X140.343 Y72.054 E1.27368
G1 X140.727 Y72.745 E1.28855
G1 X141.039 Y73.47 E1.3034
G1 X141.276 Y74.223 E1.31825
G1 X141.435 Y74.997 E1.33311
G1 X141.516 Y75.782 E1.34796
G1 X141.514 Y76.617 E1.36366
G1 X141.299 Y80.489 E1.43661
G1 X141.55 Y82.888 E1.48198
G1 X141.591 Y83.604 E1.49547
G1 X141.924 Y110.759 E2.00631
G1 X141.894 Y111.548 E2.02117
G1 X141.784 Y112.33 E2.03602
G1 X141.596 Y113.097 E2.05087
G1 X141.587 Y113.124 E2.05141
G1 X141.625 Y115.328 E2.09287
G1 X141.62 Y115.771 E2.10121
G1 X141.541 Y117.774 E2.13892
G1 X141.503 Y118.296 E2.14876
G1 X141.293 Y120.261 E2.18593
G1 X141.225 Y120.747 E2.19516
G1 X140.904 Y122.624 E2.23098
G1 X140.807 Y123.102 E2.24016
G1 X140.381 Y124.906 E2.27503
G1 X140.26 Y125.359 E2.28385
G1 X139.742 Y127.082 E2.31769
G1 X139.596 Y127.518 E2.32634
G1 X139.005 Y129.132 E2.35867
G1 X138.724 Y129.803 E2.37235
G1 X137.361 Y132.666 E2.432
G1 X136.985 Y133.362 E2.44688
G1 X136.238 Y134.592 E2.47395
G1 X135.913 Y135.084 E2.48504
G1 X135.136 Y136.169 E2.51015
G1 X134.709 Y136.712 E2.52314
G1 X133.914 Y137.637 E2.54608
G1 X133.333 Y138.244 E2.56189
G1 X132.521 Y139.005 E2.58282
G1 X131.724 Y139.659 E2.60222
G1 X130.092 Y140.826 E2.63996
G1 X129.28 Y141.334 E2.65797
G1 X127.532 Y142.284 E2.6954
G1 X126.774 Y142.645 E2.71119
G1 X124.948 Y143.396 E2.74833
G1 X124.262 Y143.641 E2.76203
G1 X122.388 Y144.214 E2.79889
G1 X121.813 Y144.366 E2.81008
G1 X119.926 Y144.789 E2.84646
G1 X119.224 Y144.913 E2.85987
G1 X115.504 Y145.396 E2.93043
G1 X114.843 Y145.453 E2.94291
G1 X111.408 Y145.604 E3.00759
G1 X111.065 Y145.612 E3.01404
G1 X102.936 Y145.612 E3.16695
G1 X102.593 Y145.604 E3.1734
G1 X99.158 Y145.453 E3.23808
G1 X98.497 Y145.396 E3.25056
G1 X94.776 Y144.913 E3.32114
G1 X94.074 Y144.789 E3.33455
G1 X92.187 Y144.366 E3.37093
G1 X91.612 Y144.214 E3.38211
G1 X89.738 Y143.641 E3.41898
G1 X89.052 Y143.396 E3.43268
G1 X87.226 Y142.645 E3.46982
G1 X86.468 Y142.284 E3.48561
G1 X84.72 Y141.334 E3.52303
G1 X83.908 Y140.826 E3.54105
G1 X82.276 Y139.659 E3.57879
G1 X81.479 Y139.005 E3.59819
G1 X80.667 Y138.244 E3.61912
G1 X80.086 Y137.637 E3.63492
G1 X79.291 Y136.712 E3.65787
G1 X78.864 Y136.169 E3.67086
G1 X78.087 Y135.084 E3.69596
G1 X77.762 Y134.592 E3.70706
G1 X77.015 Y133.362 E3.73413
G1 X76.751 Y132.891 E3.74428
G1 X76.039 Y131.512 E3.77348
G1 X75.827 Y131.067 E3.78275
G1 X75.176 Y129.583 E3.81323
G1 X74.995 Y129.132 E3.82237
G1 X74.404 Y127.518 E3.8547
G1 X74.258 Y127.082 E3.86335
G1 X73.74 Y125.359 E3.8972
G1 X73.619 Y124.906 E3.90602
G1 X73.193 Y123.102 E3.94088
G1 X73.096 Y122.624 E3.95006
G1 X72.775 Y120.747 E3.98588
G1 X72.707 Y120.261 E3.99511
G1 X72.497 Y118.296 E4.03228
G1 X72.459 Y117.776 E4.04209
G1 X72.38 Y115.784 E4.07959
G1 X72.375 Y115.34 E4.08794
G1 X72.416 Y112.947 E4.13296
G1 X72.287 Y112.487 E4.14195
G1 X72.151 Y111.709 E4.15681
G1 X72.093 Y110.67 E4.17638
G1 X72.396 Y83.404 E4.6893
G1 X72.448 Y82.588 E4.70468
G1 X72.699 Y80.438 E4.7454
G1 X72.486 Y76.617 E4.81739
G1 X72.482 Y75.828 E4.83223
G1 X72.558 Y75.042 E4.84708
G1 X72.713 Y74.267 E4.86195
G1 X72.946 Y73.513 E4.87679
G1 X73.253 Y72.785 E4.89165
G1 X73.633 Y72.093 E4.90651
G1 X74.081 Y71.442 E4.92137
G1 X74.592 Y70.84 E4.93622
G0 F3600 X74.994 Y70.999
G1 F1800 X75.561 Y70.479 E4.9507
G1 X76.178 Y70.021 E4.96515
G1 X76.84 Y69.629 E4.97962
G1 X77.539 Y69.308 E4.99409
G1 X78.268 Y69.061 E5.00857
G1 X79.018 Y68.891 E5.02304
G1 X79.782 Y68.8 E5.03751
G1 X80.274 Y68.784 E5.04677
G1 X133.726 Y68.784 E6.05223
G1 X134.494 Y68.824 E6.0667
G1 X135.254 Y68.943 E6.08117
G1 X135.997 Y69.141 E6.09563
G1 X136.716 Y69.415 E6.1101
G1 X137.402 Y69.762 E6.12456
G1 X138.049 Y70.178 E6.13903
G1 X138.649 Y70.659 E6.1535
G1 X139.196 Y71.2 E6.16797
G1 X139.684 Y71.795 E6.18245
G1 X140.107 Y72.437 E6.19691
G1 X140.462 Y73.12 E6.21139
G1 X140.743 Y73.835 E6.22584
G1 X140.949 Y74.577 E6.24032
G1 X141.077 Y75.335 E6.25478
G1 X141.126 Y76.103 E6.26926
G1 X141.115 Y76.595 E6.27852
G1 X140.898 Y80.502 E6.35212
G1 X141.152 Y82.929 E6.39803
G1 X141.191 Y83.609 E6.41084
G1 X141.524 Y110.764 E6.92168
G1 X141.494 Y111.533 E6.93615
G1 X141.384 Y112.294 E6.95062
G1 X141.195 Y113.04 E6.96509
G1 X141.186 Y113.067 E6.96563
G1 X141.225 Y115.335 E7.0083
G1 X141.22 Y115.756 E7.01622
G1 X141.141 Y117.759 E7.05392
G1 X141.105 Y118.253 E7.06324
G1 X140.895 Y120.218 E7.10041
G1 X140.831 Y120.679 E7.10917
G1 X140.51 Y122.556 E7.14499
G1 X140.418 Y123.01 E7.1537
G1 X139.992 Y124.814 E7.18857
G1 X139.877 Y125.244 E7.19694
G1 X139.359 Y126.967 E7.23079
G1 X139.221 Y127.38 E7.23898
G1 X138.63 Y128.994 E7.27131
G1 X138.362 Y129.631 E7.28431
G1 X136.999 Y132.494 E7.34395
G1 X136.643 Y133.154 E7.35806
G1 X135.896 Y134.384 E7.38513
G1 X135.587 Y134.852 E7.39568
G1 X134.81 Y135.937 E7.42078
G1 X134.406 Y136.451 E7.43308
G1 X133.611 Y137.376 E7.45602
G1 X133.059 Y137.952 E7.47103
G1 X132.247 Y138.713 E7.49196
G1 X131.491 Y139.333 E7.51035
G1 X129.859 Y140.5 E7.54809
G1 X129.089 Y140.983 E7.56519
G1 X127.341 Y141.933 E7.60262
G1 X126.622 Y142.275 E7.61759
G1 X124.796 Y143.026 E7.65473
G1 X124.145 Y143.259 E7.66774
G1 X122.271 Y143.832 E7.7046
G1 X121.726 Y143.976 E7.7152
G1 X119.839 Y144.399 E7.75158
G1 X119.173 Y144.516 E7.7643
G1 X115.453 Y144.999 E7.83486
G1 X114.825 Y145.054 E7.84672
G1 X111.39 Y145.205 E7.9114
G1 X111.065 Y145.212 E7.91751
G1 X102.936 Y145.212 E8.07042
G1 X102.611 Y145.205 E8.07654
G1 X99.176 Y145.054 E8.14122
G1 X98.548 Y144.999 E8.15307
G1 X94.827 Y144.516 E8.22365
G1 X94.161 Y144.399 E8.23637
G1 X92.274 Y143.976 E8.27275
G1 X91.729 Y143.832 E8.28335
G1 X89.855 Y143.259 E8.32022
G1 X89.204 Y143.026 E8.33322
G1 X87.378 Y142.275 E8.37036
G1 X86.659 Y141.933 E8.38534
G1 X84.911 Y140.983 E8.42276
G1 X84.141 Y140.5 E8.43986
G1 X82.509 Y139.333 E8.4776
G1 X81.753 Y138.713 E8.49599
G1 X80.941 Y137.952 E8.51693
G1 X80.389 Y137.376 E8.53193
G1 X79.594 Y136.451 E8.55488
G1 X79.19 Y135.937 E8.56717
G1 X78.413 Y134.852 E8.59228
G1 X78.104 Y134.384 E8.60283
G1 X77.357 Y133.154 E8.62989
G1 X77.107 Y132.708 E8.63951
G1 X76.395 Y131.329 E8.66871
G1 X76.193 Y130.907 E8.67751
G1 X75.542 Y129.423 E8.70799
G1 X75.37 Y128.994 E8.71668
G1 X74.779 Y127.38 E8.74901
G1 X74.641 Y126.967 E8.75721
G1 X74.123 Y125.244 E8.79105
G1 X74.008 Y124.814 E8.79942
G1 X73.582 Y123.01 E8.83429
G1 X73.49 Y122.556 E8.843
G1 X73.169 Y120.679 E8.87882
G1 X73.105 Y120.218 E8.88758
G1 X72.895 Y118.253 E8.92475
G1 X72.859 Y117.76 E8.93405
G1 X72.78 Y115.768 E8.97155
G1 X72.775 Y115.347 E8.97947
G1 X72.817 Y112.896 E9.02558
G1 X72.673 Y112.379 E9.03568
G1 X72.544 Y111.621 E9.05014
G1 X72.493 Y110.675 E9.06796
G1 X72.796 Y83.409 E9.58088
G1 X72.846 Y82.634 E9.59549
G1 X73.1 Y80.456 E9.63674
G1 X72.885 Y76.595 E9.70948
G1 X72.883 Y75.826 E9.72394
G1 X72.96 Y75.061 E9.7384
G1 X73.116 Y74.308 E9.75287
G1 X73.349 Y73.575 E9.76734
G1 X73.658 Y72.87 E9.78182
G1 X74.037 Y72.201 E9.79628
G1 X74.484 Y71.575 E9.81075
G1 X74.994 Y70.999 E9.82522
G0 F3600 X75.396 Y71.164
G1 F1800 X75.959 Y70.672 E9.83929
G1 X76.572 Y70.243 E9.85336
G1 X77.227 Y69.882 E9.86743
G1 X77.917 Y69.593 E9.8815
G1 X78.634 Y69.379 E9.89557
G1 X79.37 Y69.243 E9.90965
G1 X80.274 Y69.184 E9.92669
G1 X133.726 Y69.184 E10.93216
G1 X134.473 Y69.224 E10.94623
G1 X135.211 Y69.343 E10.96029
G1 X135.933 Y69.541 E10.97437
G1 X136.629 Y69.814 E10.98844
G1 X137.292 Y70.161 E11.00251
G1 X137.915 Y70.576 E11.01659
G1 X138.489 Y71.055 E11.03066
G1 X139.01 Y71.592 E11.04473
G1 X139.469 Y72.182 E11.05879
G1 X139.864 Y72.818 E11.07287
G1 X140.188 Y73.492 E11.08694
G1 X140.438 Y74.197 E11.10101
G1 X140.612 Y74.925 E11.11509
G1 X140.707 Y75.667 E11.12916
G1 X140.715 Y76.572 E11.14619
G1 X140.496 Y80.509 E11.22036
G1 X140.754 Y82.971 E11.26692
G1 X140.791 Y83.614 E11.27904
G1 X141.124 Y110.769 E11.78988
G1 X141.094 Y111.517 E11.80396
G1 X140.983 Y112.256 E11.81802
G1 X140.795 Y112.98 E11.83209
G1 X140.784 Y113.01 E11.83269
G1 X140.825 Y115.342 E11.87656
G1 X140.821 Y115.74 E11.88405
G1 X140.742 Y117.743 E11.92176
G1 X140.707 Y118.211 E11.93058
G1 X140.497 Y120.176 E11.96776
G1 X140.437 Y120.612 E11.97604
G1 X140.116 Y122.489 E12.01186
G1 X140.029 Y122.918 E12.02009
G1 X139.603 Y124.722 E12.05496
G1 X139.494 Y125.128 E12.06286
G1 X138.976 Y126.851 E12.09671
G1 X138.845 Y127.243 E12.10448
G1 X138.254 Y128.857 E12.13681
G1 X138.001 Y129.459 E12.1491
G1 X136.638 Y132.322 E12.20874
G1 X136.301 Y132.947 E12.2221
G1 X135.554 Y134.177 E12.24917
G1 X135.262 Y134.619 E12.25913
G1 X134.485 Y135.704 E12.28424
G1 X134.103 Y136.191 E12.29588
G1 X133.308 Y137.116 E12.31882
G1 X132.786 Y137.661 E12.33302
G1 X131.974 Y138.422 E12.35395
G1 X131.259 Y139.008 E12.37134
G1 X129.627 Y140.175 E12.40908
G1 X128.898 Y140.631 E12.42526
G1 X127.15 Y141.581 E12.46268
G1 X126.47 Y141.905 E12.47685
G1 X124.644 Y142.656 E12.51399
G1 X124.028 Y142.876 E12.52629
G1 X122.154 Y143.449 E12.56315
G1 X121.638 Y143.585 E12.57319
G1 X119.751 Y144.008 E12.60957
G1 X119.121 Y144.12 E12.62161
G1 X115.401 Y144.603 E12.69217
G1 X114.807 Y144.654 E12.70338
G1 X111.372 Y144.805 E12.76806
G1 X111.065 Y144.812 E12.77384
G1 X102.936 Y144.812 E12.92675
G1 X102.629 Y144.805 E12.93252
G1 X99.194 Y144.654 E12.9972
G1 X98.6 Y144.603 E13.00841
G1 X94.879 Y144.12 E13.079
G1 X94.249 Y144.008 E13.09103
G1 X92.362 Y143.585 E13.12741
G1 X91.846 Y143.449 E13.13745
G1 X89.972 Y142.876 E13.17431
G1 X89.356 Y142.656 E13.18661
G1 X87.53 Y141.905 E13.22375
G1 X86.85 Y141.581 E13.23792
G1 X85.102 Y140.631 E13.27534
G1 X84.373 Y140.175 E13.29152
G1 X82.741 Y139.008 E13.32926
G1 X82.026 Y138.422 E13.34665
G1 X81.214 Y137.661 E13.36758
G1 X80.692 Y137.116 E13.38178
G1 X79.897 Y136.191 E13.40472
G1 X79.515 Y135.704 E13.41636
G1 X78.738 Y134.619 E13.44147
G1 X78.446 Y134.177 E13.45143
G1 X77.699 Y132.947 E13.4785
G1 X77.462 Y132.524 E13.48762
G1 X76.75 Y131.145 E13.51681
G1 X76.56 Y130.746 E13.52513
G1 X75.909 Y129.262 E13.55561
G1 X75.746 Y128.857 E13.56382
G1 X75.155 Y127.243 E13.59615
G1 X75.024 Y126.851 E13.60393
G1 X74.506 Y125.128 E13.63777
G1 X74.397 Y124.722 E13.64568
G1 X73.971 Y122.918 E13.68055
G1 X73.884 Y122.489 E13.68878
G1 X73.563 Y120.612 E13.7246
G1 X73.503 Y120.176 E13.73288
G1 X73.293 Y118.211 E13.77005
G1 X73.258 Y117.744 E13.77886
G1 X73.179 Y115.752 E13.81636
G1 X73.175 Y115.354 E13.82385
G1 X73.218 Y112.846 E13.87103
G1 X73.059 Y112.271 E13.88225
G1 X72.936 Y111.533 E13.89633
G1 X72.893 Y110.679 E13.91241
G1 X73.196 Y83.413 E14.42533
G1 X73.243 Y82.681 E14.43913
G1 X73.501 Y80.463 E14.48113
G1 X73.285 Y76.573 E14.55442
G1 X73.283 Y75.825 E14.56849
G1 X73.361 Y75.081 E14.58256
G1 X73.519 Y74.35 E14.59663
G1 X73.753 Y73.639 E14.61071
G1 X74.062 Y72.958 E14.62478
G1 X74.442 Y72.313 E14.63886
G1 X74.888 Y71.713 E14.65292
G1 X75.396 Y71.164 E14.66699
G0 F3600 X75.797 Y71.335
G1 F1800 X76.357 Y70.872 E14.68066
G1 X76.964 Y70.474 E14.69431
G1 X77.612 Y70.145 E14.70798
G1 X78.292 Y69.889 E14.72165
G1 X78.995 Y69.709 E14.7353
G1 X79.715 Y69.608 E14.74898
G1 X80.274 Y69.584 E14.7595
G1 X133.726 Y69.584 E15.76496
G1 X134.451 Y69.624 E15.77862
G1 X135.168 Y69.743 E15.79229
G1 X135.867 Y69.941 E15.80596
G1 X136.54 Y70.214 E15.81962
G1 X137.179 Y70.559 E15.83328
G1 X137.776 Y70.973 E15.84695
G1 X138.324 Y71.449 E15.8606
G1 X138.817 Y71.983 E15.87427
G1 X139.247 Y72.568 E15.88793
G1 X139.611 Y73.197 E15.9016
G1 X139.904 Y73.862 E15.91527
G1 X140.122 Y74.555 E15.92893
G1 X140.262 Y75.267 E15.94258
G1 X140.323 Y75.991 E15.95625
G1 X140.316 Y76.55 E15.96677
G1 X140.095 Y80.522 E16.0416
G1 X140.356 Y83.013 E16.08871
G1 X140.392 Y83.619 E16.10013
G1 X140.725 Y110.774 E16.61097
G1 X140.693 Y111.5 E16.62464
G1 X140.583 Y112.218 E16.6383
G1 X140.394 Y112.919 E16.65196
G1 X140.383 Y112.949 E16.65256
G1 X140.425 Y115.349 E16.69771
G1 X140.421 Y115.724 E16.70477
G1 X140.342 Y117.727 E16.74248
G1 X140.31 Y118.168 E16.75079
G1 X140.1 Y120.133 E16.78797
G1 X140.043 Y120.545 E16.79579
G1 X139.722 Y122.422 E16.83161
G1 X139.639 Y122.826 E16.83937
G1 X139.213 Y124.63 E16.87424
G1 X139.111 Y125.013 E16.88169
G1 X138.593 Y126.736 E16.91553
G1 X138.47 Y127.105 E16.92285
G1 X137.879 Y128.719 E16.95518
G1 X137.64 Y129.287 E16.96677
G1 X136.277 Y132.15 E17.02642
G1 X135.959 Y132.739 E17.03901
G1 X135.212 Y133.969 E17.06608
G1 X134.937 Y134.386 E17.07548
G1 X134.16 Y135.471 E17.10058
G1 X133.799 Y135.93 E17.11157
G1 X133.004 Y136.855 E17.13451
G1 X132.512 Y137.369 E17.14789
G1 X131.7 Y138.13 E17.16883
G1 X131.026 Y138.683 E17.18523
G1 X129.394 Y139.85 E17.22297
G1 X128.707 Y140.28 E17.23821
G1 X126.959 Y141.23 E17.27563
G1 X126.317 Y141.535 E17.289
G1 X124.491 Y142.286 E17.32614
G1 X123.911 Y142.494 E17.33773
G1 X122.037 Y143.067 E17.3746
G1 X121.551 Y143.195 E17.38405
G1 X119.664 Y143.618 E17.42043
G1 X119.07 Y143.723 E17.43177
G1 X115.35 Y144.206 E17.50234
G1 X114.79 Y144.255 E17.51291
G1 X111.355 Y144.406 E17.57759
G1 X111.065 Y144.412 E17.58304
G1 X102.936 Y144.412 E17.73595
G1 X102.646 Y144.406 E17.74141
G1 X99.211 Y144.255 E17.80609
G1 X98.651 Y144.206 E17.81666
G1 X94.93 Y143.723 E17.88724
G1 X94.336 Y143.618 E17.89859
G1 X92.449 Y143.195 E17.93497
G1 X91.963 Y143.067 E17.94442
G1 X90.089 Y142.494 E17.98128
G1 X89.509 Y142.286 E17.99287
G1 X87.683 Y141.535 E18.03001
G1 X87.041 Y141.23 E18.04338
G1 X85.293 Y140.28 E18.0808
G1 X84.606 Y139.85 E18.09605
G1 X82.974 Y138.683 E18.13379
G1 X82.3 Y138.13 E18.15019
G1 X81.488 Y137.369 E18.17112
G1 X80.996 Y136.855 E18.18451
G1 X80.201 Y135.93 E18.20745
G1 X79.84 Y135.471 E18.21843
G1 X79.063 Y134.386 E18.24354
G1 X78.788 Y133.969 E18.25293
G1 X78.041 Y132.739 E18.28
G1 X77.818 Y132.341 E18.28858
G1 X77.106 Y130.962 E18.31778
G1 X76.926 Y130.585 E18.32564
G1 X76.275 Y129.101 E18.35612
G1 X76.121 Y128.719 E18.36387
G1 X75.53 Y127.105 E18.3962
G1 X75.407 Y126.736 E18.40351
G1 X74.889 Y125.013 E18.43736
G1 X74.787 Y124.63 E18.44481
G1 X74.361 Y122.826 E18.47968
G1 X74.278 Y122.422 E18.48744
G1 X73.957 Y120.545 E18.52326
G1 X73.9 Y120.133 E18.53108
G1 X73.69 Y118.168 E18.56826
G1 X73.658 Y117.729 E18.57654
G1 X73.579 Y115.737 E18.61404
G1 X73.575 Y115.361 E18.62111
G1 X73.619 Y112.797 E18.66935
G1 X73.445 Y112.164 E18.6817
G1 X73.329 Y111.447 E18.69536
G1 X73.293 Y110.684 E18.70973
G1 X73.596 Y83.418 E19.22265
G1 X73.64 Y82.727 E19.23567
G1 X73.902 Y80.476 E19.2783
G1 X73.684 Y76.551 E19.35225
G1 X73.684 Y75.824 E19.36592
G1 X73.763 Y75.102 E19.37958
G1 X73.922 Y74.393 E19.39325
G1 X74.157 Y73.706 E19.40691
G1 X74.466 Y73.049 E19.42057
G1 X74.846 Y72.43 E19.43423
G1 X75.291 Y71.856 E19.44789
G1 X75.797 Y71.335 E19.46155
G0 F3600 X76.197 Y71.513
G1 F1800 X76.753 Y71.081 E19.4748
G1 X77.354 Y70.714 E19.48804
G1 X77.993 Y70.419 E19.50128
G1 X78.662 Y70.197 E19.51454
G1 X79.351 Y70.053 E19.52778
G1 X80.274 Y69.984 E19.54519
G1 X133.726 Y69.984 E20.55065
G1 X134.429 Y70.024 E20.5639
G1 X135.123 Y70.143 E20.57714
G1 X135.798 Y70.341 E20.59038
G1 X136.447 Y70.613 E20.60361
G1 X137.061 Y70.958 E20.61686
G1 X137.632 Y71.369 E20.6301
G1 X138.153 Y71.843 E20.64334
G1 X138.617 Y72.373 E20.65659
G1 X139.017 Y72.952 E20.66983
G1 X139.349 Y73.573 E20.68308
G1 X139.609 Y74.227 E20.69632
G1 X139.793 Y74.907 E20.70957
G1 X139.899 Y75.603 E20.72281
G1 X139.916 Y76.528 E20.74021
G1 X139.694 Y80.529 E20.81559
G1 X139.958 Y83.054 E20.86335
G1 X139.992 Y83.624 E20.87409
