;FLAVOR:RepRap
;TIME:4894
;Filament used: 1.11019m
;Layer height: 0.1
;Generated with Cura_SteamEngine 2.4.0
M190 S60
M104 S205
M109 S205
G28 ;Home
G1 Z15.0 F6000 ;Move the platform down 15mm
;Prime the extruder
G92 E0
G1 F200 E3
G92 E0
;LAYER_COUNT:36
;LAYER:0
M107
G1 F1500 E-6.5
G0 F3600 X73.151 Y74.546 Z0.3
;TYPE:SKIRT
G1 F1500 E0
G1 F1800 X73.715 Y73.993 E0.01486
G1 X74.331 Y73.499 E0.02971
G1 X74.994 Y73.07 E0.04457
G1 X75.697 Y72.711 E0.05941
G1 X76.433 Y72.424 E0.07427
G1 X77.194 Y72.213 E0.08913
G1 X77.972 Y72.081 E0.10397
G1 X78.22 Y72.064 E0.10865
G1 X78.376 Y71.661 E0.11678
G1 X78.734 Y70.957 E0.13163
G1 X79.162 Y70.293 E0.14649
G1 X79.655 Y69.676 E0.16135
G1 X80.207 Y69.112 E0.17619
G1 X80.814 Y68.606 E0.19106
G1 X81.469 Y68.165 E0.20591
G1 X82.165 Y67.792 E0.22077
G1 X82.895 Y67.491 E0.23562
G1 X83.651 Y67.265 E0.25046
G1 X84.427 Y67.118 E0.26532
G1 X85.497 Y67.044 E0.28549
G1 X128.505 Y67.043 E1.0945
G1 X129.293 Y67.083 E1.10934
G1 X130.074 Y67.202 E1.1242
G1 X130.839 Y67.4 E1.13907
G1 X131.579 Y67.674 E1.15391
G1 X132.288 Y68.022 E1.16877
G1 X132.959 Y68.439 E1.18363
G1 X133.583 Y68.923 E1.19848
G1 X134.156 Y69.466 E1.21333
G1 X134.67 Y70.065 E1.22818
G1 X135.122 Y70.713 E1.24304
G1 X135.506 Y71.403 E1.25789
G1 X135.792 Y72.067 E1.27149
G1 X136.123 Y72.094 E1.27774
G1 X136.9 Y72.237 E1.2926
G1 X137.658 Y72.457 E1.30745
G1 X138.39 Y72.752 E1.32229
G1 X139.089 Y73.12 E1.33715
G1 X139.747 Y73.557 E1.35201
G1 X140.357 Y74.059 E1.36687
G1 X140.914 Y74.619 E1.38173
G1 X141.411 Y75.233 E1.39659
G1 X141.843 Y75.893 E1.41143
G1 X142.206 Y76.595 E1.42629
G1 X142.497 Y77.329 E1.44114
G1 X142.712 Y78.089 E1.456
G1 X142.837 Y78.776 E1.46914
G1 X143.143 Y81.025 E1.51183
G1 X143.213 Y81.986 E1.52996
G1 X143.55 Y110.998 E2.07572
G1 X143.52 Y111.787 E2.09058
G1 X143.409 Y112.569 E2.10543
G1 X143.22 Y113.336 E2.12029
G1 X143.015 Y113.93 E2.13211
G1 X142.618 Y114.945 E2.15261
G1 X142.294 Y115.665 E2.16747
G1 X141.898 Y116.349 E2.18233
G1 X141.656 Y116.684 E2.19011
G1 X141.72 Y116.807 E2.19272
G1 X142.013 Y117.54 E2.20756
G1 X142.231 Y118.299 E2.22242
G1 X142.371 Y119.077 E2.23729
G1 X142.431 Y119.864 E2.25214
G1 X142.412 Y120.653 E2.26698
G1 X142.321 Y121.392 E2.28099
G1 X142.143 Y122.425 E2.3007
G1 X141.969 Y123.195 E2.31555
G1 X141.719 Y123.944 E2.33041
G1 X141.394 Y124.664 E2.34527
G1 X140.998 Y125.347 E2.36012
G1 X140.535 Y125.987 E2.37498
G1 X140.01 Y126.576 E2.38982
G1 X140.006 Y126.58 E2.38992
G1 X140.072 Y126.769 E2.39369
G1 X140.255 Y127.537 E2.40854
G1 X140.36 Y128.32 E2.4234
G1 X140.385 Y129.11 E2.43827
G1 X140.329 Y129.897 E2.45311
G1 X140.195 Y130.675 E2.46796
G1 X139.982 Y131.436 E2.48283
G1 X139.526 Y132.519 E2.50493
G1 X138.658 Y134.211 E2.5407
G1 X138.385 Y134.7 E2.55124
G1 X137.593 Y136.004 E2.57993
G1 X137.268 Y136.495 E2.59101
G1 X136.444 Y137.646 E2.61764
G1 X136.015 Y138.193 E2.63071
G1 X135.172 Y139.173 E2.65503
G1 X134.59 Y139.78 E2.67085
G1 X133.729 Y140.586 E2.69303
G1 X132.939 Y141.234 E2.71225
G1 X131.21 Y142.472 E2.75226
G1 X130.395 Y142.983 E2.77035
G1 X128.541 Y143.991 E2.81005
G1 X127.779 Y144.353 E2.82591
G1 X125.844 Y145.148 E2.86527
G1 X125.16 Y145.392 E2.87893
G1 X123.174 Y145.999 E2.91799
G1 X122.602 Y146.151 E2.92912
G1 X120.601 Y146.6 E2.9677
G1 X120.097 Y146.696 E2.97735
G1 X118.093 Y147.009 E3.0155
G1 X117.524 Y147.076 E3.02628
G1 X113.705 Y147.388 E3.09836
G1 X113.115 Y147.414 E3.10947
G1 X104.357 Y147.465 E3.27421
G1 X104.194 Y147.464 E3.27728
G1 X100.811 Y147.413 E3.34092
G1 X100.294 Y147.388 E3.35066
G1 X96.476 Y147.076 E3.42272
G1 X95.907 Y147.009 E3.43349
G1 X93.903 Y146.696 E3.47165
G1 X93.399 Y146.6 E3.4813
G1 X91.398 Y146.151 E3.51987
G1 X90.826 Y145.999 E3.53101
G1 X88.84 Y145.392 E3.57007
G1 X88.153 Y145.146 E3.5838
G1 X86.218 Y144.35 E3.62315
G1 X85.462 Y143.991 E3.6389
G1 X83.608 Y142.984 E3.67858
G1 X82.79 Y142.472 E3.69674
G1 X81.061 Y141.234 E3.73674
G1 X80.271 Y140.586 E3.75596
G1 X79.41 Y139.78 E3.77814
G1 X78.828 Y139.173 E3.79396
G1 X77.985 Y138.193 E3.81828
G1 X77.556 Y137.646 E3.83135
G1 X76.732 Y136.495 E3.85798
G1 X76.407 Y136.004 E3.86906
G1 X75.615 Y134.7 E3.89776
G1 X75.318 Y134.165 E3.90927
G1 X74.449 Y132.443 E3.94555
G1 X74.13 Y131.721 E3.9604
G1 X73.885 Y130.97 E3.97526
G1 X73.717 Y130.199 E3.9901
G1 X73.628 Y129.414 E4.00496
G1 X73.619 Y128.624 E4.01982
G1 X73.69 Y127.838 E4.03467
G1 X73.84 Y127.063 E4.04952
G1 X73.993 Y126.553 E4.05953
G1 X73.716 Y126.271 E4.06697
G1 X73.221 Y125.655 E4.08183
G1 X72.791 Y124.993 E4.09668
G1 X72.431 Y124.29 E4.11154
G1 X72.143 Y123.555 E4.12639
G1 X71.932 Y122.794 E4.14124
G1 X71.854 Y122.4 E4.1488
G1 X71.679 Y121.377 E4.16832
G1 X71.585 Y120.593 E4.18317
G1 X71.571 Y119.804 E4.19802
G1 X71.637 Y119.017 E4.21287
G1 X71.783 Y118.24 E4.22774
G1 X72.006 Y117.483 E4.24259
G1 X72.304 Y116.752 E4.25744
G1 X72.339 Y116.685 E4.25886
G1 X71.947 Y116.098 E4.27214
G1 X71.577 Y115.401 E4.28698
G1 X71.378 Y114.937 E4.29648
G1 X70.983 Y113.926 E4.3169
G1 X70.733 Y113.176 E4.33177
G1 X70.56 Y112.406 E4.34661
G1 X70.466 Y111.622 E4.36146
G1 X70.449 Y110.996 E4.37324
G1 X70.786 Y81.989 E4.91892
G1 X70.857 Y81.024 E4.93712
G1 X71.165 Y78.77 E4.97991
G1 X71.311 Y77.994 E4.99477
G1 X71.535 Y77.237 E5.00962
G1 X71.835 Y76.506 E5.02448
G1 X72.207 Y75.809 E5.03934
G1 X72.647 Y75.154 E5.05418
G1 X73.151 Y74.546 E5.06904
G0 F3600 X73.528 Y74.729
G1 F1800 X74.086 Y74.2 E5.0835
G1 X74.696 Y73.731 E5.09798
G1 X75.351 Y73.329 E5.11243
G1 X76.045 Y72.996 E5.12691
G1 X76.769 Y72.737 E5.14138
G1 X77.516 Y72.555 E5.15584
G1 X78.278 Y72.452 E5.1703
G1 X78.5 Y72.451 E5.17448
G1 X78.529 Y72.353 E5.1764
G1 X78.825 Y71.643 E5.19087
G1 X79.194 Y70.967 E5.20536
G1 X79.63 Y70.334 E5.21982
G1 X80.13 Y69.749 E5.23429
G1 X80.688 Y69.22 E5.24876
G1 X81.297 Y68.751 E5.26321
G1 X81.953 Y68.348 E5.2777
G1 X82.646 Y68.015 E5.29216
G1 X83.37 Y67.756 E5.30662
G1 X84.117 Y67.574 E5.32109
G1 X84.879 Y67.47 E5.33555
G1 X85.497 Y67.444 E5.34719
G1 X128.505 Y67.443 E6.15619
G1 X129.273 Y67.483 E6.17066
G1 X130.033 Y67.602 E6.18513
G1 X130.776 Y67.8 E6.19959
G1 X131.495 Y68.074 E6.21407
G1 X132.181 Y68.421 E6.22853
G1 X132.828 Y68.837 E6.243
G1 X133.428 Y69.318 E6.25746
G1 X133.975 Y69.859 E6.27193
G1 X134.463 Y70.454 E6.28641
G1 X134.886 Y71.096 E6.30087
G1 X135.241 Y71.779 E6.31535
G1 X135.503 Y72.445 E6.32881
G1 X136.111 Y72.496 E6.34029
G1 X136.866 Y72.64 E6.35475
G1 X137.603 Y72.861 E6.36922
G1 X138.313 Y73.158 E6.3837
G1 X138.988 Y73.526 E6.39816
G1 X139.621 Y73.963 E6.41263
G1 X140.205 Y74.463 E6.42709
G1 X140.734 Y75.021 E6.44155
G1 X141.203 Y75.631 E6.45603
G1 X141.606 Y76.287 E6.47051
G1 X141.938 Y76.98 E6.48496
G1 X142.197 Y77.705 E6.49945
G1 X142.44 Y78.83 E6.52109
G1 X142.746 Y81.079 E6.56379
G1 X142.814 Y81.991 E6.58099
G1 X143.151 Y111.003 E7.12676
G1 X143.119 Y111.772 E7.14124
G1 X143.009 Y112.533 E7.1557
G1 X142.82 Y113.278 E7.17016
G1 X142.643 Y113.785 E7.18026
G1 X142.246 Y114.8 E7.20076
G1 X141.929 Y115.5 E7.21522
G1 X141.541 Y116.164 E7.22968
G1 X141.188 Y116.646 E7.24092
G1 X141.438 Y117.157 E7.25162
G1 X141.703 Y117.879 E7.26609
G1 X141.892 Y118.625 E7.28057
G1 X142.003 Y119.386 E7.29503
G1 X142.033 Y120.154 E7.30949
G1 X141.984 Y120.922 E7.32397
G1 X141.927 Y121.324 E7.3316
G1 X141.749 Y122.357 E7.35132
G1 X141.579 Y123.107 E7.36579
G1 X141.332 Y123.835 E7.38025
G1 X141.011 Y124.534 E7.39472
G1 X140.619 Y125.196 E7.40919
G1 X140.161 Y125.814 E7.42366
G1 X139.64 Y126.38 E7.43813
G1 X139.545 Y126.464 E7.44051
G1 X139.732 Y127.036 E7.45183
G1 X139.893 Y127.788 E7.4663
G1 X139.975 Y128.552 E7.48075
G1 X139.977 Y129.322 E7.49524
G1 X139.9 Y130.087 E7.5097
G1 X139.743 Y130.84 E7.52417
G1 X139.509 Y131.573 E7.53864
G1 X139.17 Y132.337 E7.55437
G1 X138.302 Y134.029 E7.59014
G1 X138.043 Y134.492 E7.60012
G1 X137.251 Y135.796 E7.62882
G1 X136.943 Y136.263 E7.63934
G1 X136.119 Y137.414 E7.66597
G1 X135.712 Y137.932 E7.67836
G1 X134.869 Y138.912 E7.70267
G1 X134.316 Y139.488 E7.71769
G1 X133.455 Y140.294 E7.73988
G1 X132.706 Y140.909 E7.75811
G1 X130.977 Y142.147 E7.79811
G1 X130.204 Y142.631 E7.81527
G1 X128.35 Y143.639 E7.85496
G1 X127.627 Y143.983 E7.87002
G1 X125.692 Y144.778 E7.90937
G1 X125.043 Y145.01 E7.92234
G1 X123.057 Y145.617 E7.9614
G1 X122.514 Y145.76 E7.97196
G1 X120.513 Y146.209 E8.01054
G1 X120.035 Y146.3 E8.01969
G1 X118.031 Y146.613 E8.05785
G1 X117.492 Y146.677 E8.06806
G1 X113.673 Y146.989 E8.14013
G1 X113.113 Y147.014 E8.15068
G1 X104.355 Y147.065 E8.31542
G1 X104.2 Y147.064 E8.31834
G1 X100.817 Y147.013 E8.38198
G1 X100.326 Y146.989 E8.39123
G1 X96.508 Y146.677 E8.46329
G1 X95.969 Y146.613 E8.4735
G1 X93.965 Y146.3 E8.51165
G1 X93.487 Y146.209 E8.5208
G1 X91.486 Y145.76 E8.55938
G1 X90.943 Y145.617 E8.56994
G1 X88.957 Y145.01 E8.60901
G1 X88.305 Y144.777 E8.62203
G1 X86.37 Y143.981 E8.66139
G1 X85.653 Y143.64 E8.67632
G1 X83.799 Y142.633 E8.71601
G1 X83.023 Y142.147 E8.73323
G1 X81.294 Y140.909 E8.77323
G1 X80.545 Y140.294 E8.79146
G1 X79.684 Y139.488 E8.81365
G1 X79.131 Y138.912 E8.82867
G1 X78.288 Y137.932 E8.85298
G1 X77.881 Y137.414 E8.86538
G1 X77.057 Y136.263 E8.892
G1 X76.749 Y135.796 E8.90253
G1 X75.957 Y134.492 E8.93123
G1 X75.676 Y133.985 E8.94213
G1 X74.807 Y132.263 E8.97841
G1 X74.496 Y131.559 E8.99289
G1 X74.261 Y130.827 E9.00735
G1 X74.102 Y130.074 E9.02183
G1 X74.023 Y129.309 E9.03629
G1 X74.023 Y128.54 E9.05076
G1 X74.104 Y127.775 E9.06523
G1 X74.263 Y127.023 E9.07969
G1 X74.448 Y126.449 E9.09103
G1 X74.409 Y126.415 E9.09201
G1 X73.884 Y125.854 E9.10646
G1 X73.419 Y125.241 E9.12093
G1 X73.021 Y124.583 E9.1354
G1 X72.693 Y123.887 E9.14987
G1 X72.439 Y123.161 E9.16434
G1 X72.248 Y122.333 E9.18032
G1 X72.073 Y121.31 E9.19985
G1 X71.983 Y120.546 E9.21432
G1 X71.972 Y119.777 E9.22878
G1 X72.042 Y119.011 E9.24325
G1 X72.191 Y118.256 E9.25773
G1 X72.417 Y117.521 E9.27219
G1 X72.718 Y116.813 E9.28666
G1 X72.814 Y116.64 E9.29039
G1 X72.578 Y116.338 E9.29759
G1 X72.171 Y115.685 E9.31207
G1 X71.75 Y114.791 E9.33066
G1 X71.355 Y113.78 E9.35107
G1 X71.113 Y113.05 E9.36554
G1 X70.948 Y112.299 E9.38
G1 X70.862 Y111.534 E9.39448
G1 X70.848 Y111.001 E9.40451
G1 X71.185 Y81.994 E9.95019
G1 X71.253 Y81.078 E9.96747
G1 X71.561 Y78.824 E10.01026
G1 X71.705 Y78.068 E10.02474
G1 X71.926 Y77.332 E10.03919
G1 X72.223 Y76.622 E10.05367
G1 X72.591 Y75.947 E10.06813
G1 X73.028 Y75.314 E10.0826
G1 X73.528 Y74.729 E10.09707
G0 F3600 X73.903 Y74.916
G1 F1800 X74.456 Y74.412 E10.11115
G1 X75.059 Y73.969 E10.12522
G1 X75.706 Y73.594 E10.13929
G1 X76.389 Y73.289 E10.15336
G1 X77.101 Y73.059 E10.16744
G1 X77.833 Y72.907 E10.1815
G1 X78.578 Y72.833 E10.19558
G1 X78.799 Y72.836 E10.19974
G1 X78.97 Y72.314 E10.21007
G1 X79.277 Y71.632 E10.22414
G1 X79.656 Y70.987 E10.23821
G1 X80.101 Y70.385 E10.25229
G1 X80.607 Y69.835 E10.26635
G1 X81.17 Y69.342 E10.28043
G1 X81.782 Y68.911 E10.29451
G1 X82.436 Y68.549 E10.30857
G1 X83.125 Y68.258 E10.32264
G1 X83.841 Y68.043 E10.3367
G1 X84.577 Y67.905 E10.35079
G1 X85.497 Y67.844 E10.36813
G1 X128.505 Y67.843 E11.17714
G1 X129.252 Y67.883 E11.19121
G1 X129.99 Y68.002 E11.20527
G1 X130.712 Y68.2 E11.21935
G1 X131.408 Y68.473 E11.23342
G1 X132.071 Y68.82 E11.24749
G1 X132.694 Y69.235 E11.26157
G1 X133.268 Y69.714 E11.27564
G1 X133.788 Y70.251 E11.2897
G1 X134.248 Y70.841 E11.30377
G1 X134.643 Y71.477 E11.31785
G1 X134.967 Y72.151 E11.33192
G1 X135.209 Y72.835 E11.34557
G1 X135.352 Y72.832 E11.34826
G1 X136.097 Y72.898 E11.36233
G1 X136.831 Y73.043 E11.3764
G1 X137.545 Y73.266 E11.39047
G1 X138.231 Y73.563 E11.40453
G1 X138.882 Y73.933 E11.41862
G1 X139.49 Y74.369 E11.43269
G1 X140.047 Y74.868 E11.44676
G1 X140.548 Y75.423 E11.46082
G1 X140.987 Y76.029 E11.4749
G1 X141.359 Y76.678 E11.48897
G1 X141.66 Y77.363 E11.50304
G1 X141.885 Y78.076 E11.51711
G1 X142.044 Y78.884 E11.5326
G1 X142.35 Y81.133 E11.57529
G1 X142.414 Y81.996 E11.59157
G1 X142.751 Y111.008 E12.13734
G1 X142.719 Y111.755 E12.1514
G1 X142.608 Y112.495 E12.16548
G1 X142.419 Y113.219 E12.17956
G1 X142.27 Y113.639 E12.18794
G1 X141.873 Y114.654 E12.20844
G1 X141.564 Y115.335 E12.22251
G1 X141.184 Y115.979 E12.23657
G1 X140.737 Y116.579 E12.25065
G1 X140.71 Y116.609 E12.25141
G1 X140.837 Y116.824 E12.2561
G1 X141.148 Y117.504 E12.27017
G1 X141.384 Y118.214 E12.28424
G1 X141.543 Y118.945 E12.29831
G1 X141.624 Y119.688 E12.31237
G1 X141.624 Y120.437 E12.32646
G1 X141.532 Y121.256 E12.34196
G1 X141.354 Y122.289 E12.36168
G1 X141.188 Y123.018 E12.37575
G1 X140.945 Y123.725 E12.38981
G1 X140.628 Y124.403 E12.40389
G1 X140.24 Y125.043 E12.41797
G1 X139.786 Y125.637 E12.43203
G1 X139.272 Y126.18 E12.44609
G1 X139.072 Y126.35 E12.45103
G1 X139.17 Y126.582 E12.45577
G1 X139.386 Y127.299 E12.46986
G1 X139.525 Y128.034 E12.48393
G1 X139.584 Y128.779 E12.49798
G1 X139.563 Y129.527 E12.51206
G1 X139.462 Y130.268 E12.52613
G1 X139.283 Y130.995 E12.54021
G1 X139.028 Y131.698 E12.55428
G1 X138.814 Y132.154 E12.56375
G1 X137.946 Y133.846 E12.59952
G1 X137.701 Y134.285 E12.60898
G1 X136.909 Y135.589 E12.63768
G1 X136.618 Y136.03 E12.64762
G1 X135.794 Y137.181 E12.67425
G1 X135.409 Y137.671 E12.68597
G1 X134.566 Y138.651 E12.71028
G1 X134.043 Y139.196 E12.72449
G1 X133.182 Y140.002 E12.74668
G1 X132.473 Y140.583 E12.76392
G1 X130.744 Y141.821 E12.80392
G1 X130.013 Y142.28 E12.82016
G1 X128.159 Y143.288 E12.85985
G1 X127.475 Y143.613 E12.8741
G1 X125.54 Y144.408 E12.91345
G1 X124.926 Y144.627 E12.92571
G1 X122.94 Y145.234 E12.96478
G1 X122.427 Y145.37 E12.97476
G1 X120.426 Y145.819 E13.01333
G1 X119.973 Y145.905 E13.02201
G1 X117.969 Y146.218 E13.06016
G1 X117.459 Y146.279 E13.06982
G1 X113.64 Y146.591 E13.1419
G1 X113.111 Y146.614 E13.15186
G1 X104.353 Y146.665 E13.31661
G1 X104.206 Y146.664 E13.31937
G1 X100.823 Y146.613 E13.38301
G1 X100.359 Y146.591 E13.39175
G1 X96.541 Y146.279 E13.46381
G1 X96.031 Y146.218 E13.47347
G1 X94.027 Y145.905 E13.51162
G1 X93.574 Y145.819 E13.5203
G1 X91.573 Y145.37 E13.55887
G1 X91.06 Y145.234 E13.56886
G1 X89.074 Y144.627 E13.60792
G1 X88.457 Y144.407 E13.62024
G1 X86.522 Y143.611 E13.6596
G1 X85.844 Y143.288 E13.67373
G1 X83.99 Y142.281 E13.71341
G1 X83.256 Y141.821 E13.72971
G1 X81.527 Y140.583 E13.76971
G1 X80.818 Y140.002 E13.78695
G1 X79.957 Y139.196 E13.80914
G1 X79.434 Y138.651 E13.82335
G1 X78.591 Y137.671 E13.84766
G1 X78.206 Y137.181 E13.85938
G1 X77.382 Y136.03 E13.88601
G1 X77.091 Y135.589 E13.89595
G1 X76.299 Y134.285 E13.92465
G1 X76.033 Y133.805 E13.93497
G1 X75.164 Y132.083 E13.97125
G1 X74.863 Y131.398 E13.98533
G1 X74.637 Y130.685 E13.9994
G1 X74.488 Y129.952 E14.01347
G1 X74.419 Y129.207 E14.02754
G1 X74.429 Y128.459 E14.04161
G1 X74.519 Y127.716 E14.05569
G1 X74.688 Y126.987 E14.06977
G1 X74.917 Y126.328 E14.08289
G1 X74.555 Y125.998 E14.09211
G1 X74.06 Y125.437 E14.10618
G1 X73.626 Y124.827 E14.12026
G1 X73.261 Y124.175 E14.13432
G1 X72.967 Y123.487 E14.14839
G1 X72.748 Y122.772 E14.16246
G1 X72.642 Y122.265 E14.1722
G1 X72.467 Y121.242 E14.19172
G1 X72.381 Y120.499 E14.20579
G1 X72.374 Y119.751 E14.21986
G1 X72.447 Y119.007 E14.23393
G1 X72.599 Y118.274 E14.24801
G1 X72.829 Y117.562 E14.26208
G1 X73.133 Y116.879 E14.27614
G1 X73.293 Y116.604 E14.28213
G1 X73.221 Y116.525 E14.28414
G1 X72.779 Y115.921 E14.29822
G1 X72.405 Y115.274 E14.31228
G1 X72.123 Y114.645 E14.32524
G1 X71.728 Y113.634 E14.34566
G1 X71.493 Y112.924 E14.35973
G1 X71.336 Y112.193 E14.37379
G1 X71.257 Y111.449 E14.38787
G1 X71.248 Y111.006 E14.3962
G1 X71.585 Y81.999 E14.94188
G1 X71.649 Y81.132 E14.95823
G1 X71.957 Y78.878 E15.00102
G1 X72.098 Y78.144 E15.01508
G1 X72.317 Y77.428 E15.02917
G1 X72.61 Y76.74 E15.04323
G1 X72.975 Y76.087 E15.0573
G1 X73.408 Y75.477 E15.07138
G1 X73.903 Y74.916 E15.08545
G0 F3600 X74.278 Y75.108
G1 F1800 X74.824 Y74.629 E15.09911
G1 X75.42 Y74.214 E15.11277
G1 X76.058 Y73.866 E15.12644
G1 X76.73 Y73.59 E15.14011
G1 X77.428 Y73.391 E15.15376
G1 X78.144 Y73.269 E15.16742
G1 X78.87 Y73.226 E15.1811
G1 X79.107 Y73.234 E15.18556
G1 X79.17 Y72.967 E15.19072
G1 X79.414 Y72.283 E15.20439
G1 X79.732 Y71.63 E15.21805
G1 X80.121 Y71.016 E15.23172
G1 X80.574 Y70.448 E15.24539
G1 X81.087 Y69.934 E15.25905
